X: 1
T: Planxty Irwin
T: Colonel John Irwin
C: Turlough O'Carolan
R: waltz, jig
S: Fiddle Hell Online 2022-4-3 Marla Fibish Slow Workshop
Z: 2022 by John Chambers <jc:trillian.mit.edu>
N: "Spirited"
M: 3/4
L: 1/4
K: D
|: A "^A"\
| "D"d2c |"G"B>cd | "A7"A2G |"D"F>ED | "G"G2E |
| "D"F>GA |[1,3 "A7"C2D | E2 :|2,4 "A7"D>EC | "D"D2 :|
|: A "^B"\
|  "D"d2d | d>cd | "A7"e>fe | ecA | "D"f2f | "G"e>fd |
| "E7"c>dB | "A7"ABc "^A2"|| "D"d2c |"G"B>cd | "A7"A2G |
| "D"F>ED | "Em"G2E | "D"F>GA | "A7"D>EC | "D"D2 :|
